svg/Outline/mail-open.svg

<svg viewBox="0 0 24 24" xmlns="http://www.w3.org/2000/svg" width="24" height="24"><path fill-rule="evenodd" d="M9.57 1.84a4 4 0 0 1 4.8 0l7.4 5.56a3 3 0 0 1 1.2 2.39l.02 6.14a5 5 0 0 1-4.74 5.02H5.73A5 5 0 0 1 1 16.23v-.26L.96 9.8a3 3 0 0 1 1.06-2.3l.14-.1zM2.99 9.09q-.21.31-.22.7l.02 6.17a3.2 3.2 0 0 0 3.2 3.2h12a3.2 3.2 0 0 0 3.2-3.22l-.02-6.15q-.01-.37-.2-.66l-5 3.78 3.36 2.6.06.07a.9.9 0 0 1-1.1 1.41l-.07-.05-6.08-4.73a.2.2 0 0 0-.21-.04l-.07.04-6.08 4.73-.07.05a.9.9 0 0 1-1.03-1.47l3.36-2.62zm10.3-5.81a2.2 2.2 0 0 0-2.64 0l-6.2 4.65 5.06 3.83 1.24-.97.14-.1a2 2 0 0 1 2.36.1l1.25.98 5.02-3.8z" clip-rule="evenodd"/></svg>

<svg viewBox="0 0 24 24" xmlns="http://www.w3.org/2000/svg" width="24" height="24"><path fill-rule="evenodd" d="M9.57 1.84A4 4 0 0 1 14.37 1.84L21.77 7.4A3 3 0 0 1 22.97 9.79L22.99 15.93A5 5 0 0 1 18.25 20.95L5.73 20.95A5 5 0 0 1 1 16.23L.96 9.8A3 3 0 0 1 2.02 7.5L2.16 7.4ZM2.99 9.09Q2.78 9.4 2.77 9.79L2.79 15.96A3.2 3.2 0 0 0 5.99 19.16L17.99 19.16A3.2 3.2 0 0 0 21.19 15.94L21.17 9.79Q21.16 9.42 20.97 9.13L15.97 12.91L19.39 15.58A.9 .9 0 0 1 18.29 16.99L12.14 12.21A.2 .2 0 0 0 11.93 12.17L5.71 16.99A.9 .9 0 0 1 4.68 15.52L8.04 12.9ZM13.29 3.28A2.2 2.2 0 0 0 10.65 3.28L4.45 7.93L9.51 11.76L10.89 10.69A2 2 0 0 1 13.25 10.79L14.5 11.77L19.52 7.97Z" clip-rule="evenodd"/></svg>
